X: 1
T: Da Forfeit O' Da Ship
R: Reel
M: 4/4
L: 1/8
K: D
|:d2 de dA F2|ABAF EDEF|((3AAA) AF ABde|f2 ed B2 AB:|
|:d2 fd adfd|d2 fd eAAf|a3 e fdef|dBAF E2 AB:|